build/assets/img/stage-design/image-element-8.svg

<svg width="73" height="127" viewBox="0 0 73 127" fill="none" xmlns="http://www.w3.org/2000/svg">
<path d="M72.9878 10.1304L65.9794 120.634C65.9231 121.526 65.6886 122.398 65.2894 123.201C64.8901 124.003 64.3339 124.72 63.6527 125.31C62.9716 125.9 62.1788 126.352 61.32 126.639C60.4612 126.927 59.5532 127.044 58.6481 126.985L10.69 124.039C8.8619 123.93 7.15256 123.111 5.93722 121.761C4.72189 120.411 4.0999 118.641 4.20782 116.84L11.2162 6.33618C11.3184 4.73681 11.9937 3.22517 13.1217 2.07063C14.2497 0.916094 15.7572 0.193679 17.3754 0.0321268C17.7729 -0.010693 18.1739 -0.010693 18.5714 0.0321268L26.9431 0.550591C27.1972 0.565552 27.4458 0.630006 27.6745 0.740226C27.9031 0.850446 28.1073 1.00424 28.2753 1.19272C28.4432 1.3812 28.5715 1.60061 28.6529 1.83828C28.7342 2.07594 28.7669 2.32713 28.749 2.57731C28.7162 3.08624 28.8888 3.58734 29.2293 3.97139C29.5698 4.35545 30.0506 4.59132 30.5669 4.6276L53.9719 6.01803C54.228 6.03235 54.4845 5.99673 54.7265 5.91322C54.9686 5.82971 55.1916 5.69995 55.3827 5.53137C55.5738 5.3628 55.7293 5.15872 55.8402 4.93084C55.9511 4.70296 56.0152 4.45576 56.029 4.20341C56.0659 3.69906 56.3019 3.22905 56.6865 2.89421C57.071 2.55937 57.5735 2.38638 58.086 2.41235L66.4578 2.93081C67.3671 2.97895 68.2578 3.20362 69.0788 3.59193C69.8997 3.98024 70.6346 4.52453 71.2414 5.19354C71.8482 5.86254 72.3148 6.64307 72.6145 7.49029C72.9142 8.33752 73.0411 9.23473 72.9878 10.1304Z" fill="#B4D1FA"/>
<g filter="url(#filter0_d)">
<path d="M5.656 13.3944L3.53914 42.1692C3.50801 42.4835 3.54131 42.8008 3.63708 43.1022C3.73286 43.4036 3.88914 43.6829 4.09664 43.9237C4.30415 44.1644 4.55864 44.3616 4.84501 44.5035C5.13138 44.6454 5.44377 44.7291 5.76364 44.7497L55.9942 48.0844C56.3084 48.1052 56.6237 48.0646 56.922 47.965C57.2203 47.8654 57.4957 47.7087 57.7324 47.504C57.9691 47.2993 58.1624 47.0505 58.3013 46.772C58.4401 46.4934 58.5218 46.1906 58.5416 45.8809L60.3953 16.4699C60.4383 15.8521 60.2328 15.2425 59.8233 14.7729C59.4137 14.3032 58.833 14.0112 58.2067 13.96L8.17949 11.2145C7.55265 11.1788 6.9367 11.3874 6.46458 11.7953C5.99247 12.2031 5.70205 12.7775 5.656 13.3944Z" fill="#8FB1DB"/>
</g>
<g filter="url(#filter1_d)">
<path d="M2.70262 50.3825L2.42754 52.7392C2.4094 52.8968 2.42374 53.0564 2.46971 53.2085C2.51568 53.3605 2.59234 53.5018 2.69508 53.6239C2.79783 53.7461 2.92455 53.8465 3.06764 53.9192C3.21074 53.992 3.36726 54.0355 3.52783 54.0471L55.9829 57.5821C56.2906 57.6021 56.5944 57.5042 56.8306 57.3088C57.0669 57.1133 57.2173 56.8356 57.2506 56.5334L57.418 54.1768C57.4294 54.0219 57.4096 53.8664 57.3598 53.7192C57.31 53.5719 57.2312 53.4358 57.1278 53.3186C57.0245 53.2015 56.8987 53.1056 56.7576 53.0365C56.6165 52.9674 56.463 52.9264 56.3058 52.9159L3.97034 49.381C3.66984 49.3599 3.37234 49.4514 3.13732 49.637C2.90229 49.8227 2.74705 50.089 2.70262 50.3825Z" fill="#8FB1DB"/>
</g>
<g filter="url(#filter2_d)">
<path d="M2.28269 57.5815L2.00762 59.9382C1.98947 60.0958 2.00382 60.2554 2.04979 60.4074C2.09576 60.5595 2.17242 60.7008 2.27516 60.8229C2.37791 60.9451 2.50463 61.0455 2.64772 61.1182C2.79081 61.1909 2.94734 61.2344 3.10791 61.2461L55.5629 64.7811C55.8783 64.8005 56.1887 64.6961 56.4262 64.4908C56.6637 64.2855 56.8091 63.9959 56.8306 63.6853L56.9981 61.3286C57.0095 61.1738 56.9897 61.0183 56.9399 60.871C56.8901 60.7237 56.8113 60.5876 56.7079 60.4705C56.6045 60.3533 56.4787 60.2574 56.3376 60.1883C56.1966 60.1192 56.043 60.0782 55.8858 60.0678L3.55042 56.5328C3.24262 56.5128 2.93889 56.6107 2.70265 56.8062C2.46642 57.0016 2.31595 57.2794 2.28269 57.5815Z" fill="#8FB1DB"/>
</g>
<defs>
<filter id="filter0_d" x="1.52783" y="9.2106" width="64.8731" height="44.8791" filterUnits="userSpaceOnUse" color-interpolation-filters="sRGB">
<feFlood flood-opacity="0" result="BackgroundImageFix"/>
<feColorMatrix in="SourceAlpha" type="matrix" values="0 0 0 0 0 0 0 0 0 0 0 0 0 0 0 0 0 0 127 0"/>
<feOffset dx="2" dy="2"/>
<feGaussianBlur stdDeviation="2"/>
<feColorMatrix type="matrix" values="0 0 0 0 0.555729 0 0 0 0 0.660379 0 0 0 0 0.808333 0 0 0 0.2 0"/>
<feBlend mode="normal" in2="BackgroundImageFix" result="effect1_dropShadow"/>
<feBlend mode="normal" in="SourceGraphic" in2="effect1_dropShadow" result="shape"/>
</filter>
<filter id="filter1_d" x="0.419922" y="47.378" width="63.0012" height="16.2067" filterUnits="userSpaceOnUse" color-interpolation-filters="sRGB">
<feFlood flood-opacity="0" result="BackgroundImageFix"/>
<feColorMatrix in="SourceAlpha" type="matrix" values="0 0 0 0 0 0 0 0 0 0 0 0 0 0 0 0 0 0 127 0"/>
<feOffset dx="2" dy="2"/>
<feGaussianBlur stdDeviation="2"/>
<feColorMatrix type="matrix" values="0 0 0 0 0.555729 0 0 0 0 0.660379 0 0 0 0 0.808333 0 0 0 0.2 0"/>
<feBlend mode="normal" in2="BackgroundImageFix" result="effect1_dropShadow"/>
<feBlend mode="normal" in="SourceGraphic" in2="effect1_dropShadow" result="shape"/>
</filter>
<filter id="filter2_d" x="0" y="54.5303" width="63.0012" height="16.2531" filterUnits="userSpaceOnUse" color-interpolation-filters="sRGB">
<feFlood flood-opacity="0" result="BackgroundImageFix"/>
<feColorMatrix in="SourceAlpha" type="matrix" values="0 0 0 0 0 0 0 0 0 0 0 0 0 0 0 0 0 0 127 0"/>
<feOffset dx="2" dy="2"/>
<feGaussianBlur stdDeviation="2"/>
<feColorMatrix type="matrix" values="0 0 0 0 0.555729 0 0 0 0 0.660379 0 0 0 0 0.808333 0 0 0 0.2 0"/>
<feBlend mode="normal" in2="BackgroundImageFix" result="effect1_dropShadow"/>
<feBlend mode="normal" in="SourceGraphic" in2="effect1_dropShadow" result="shape"/>
</filter>
</defs>
</svg>

<svg width="73" height="127" fill="none" xmlns="http://www.w3.org/2000/svg"><path d="M72.988 10.13l-7.009 110.504a6.715 6.715 0 01-.69 2.567 6.802 6.802 0 01-1.636 2.109 6.906 6.906 0 01-2.333 1.329 6.977 6.977 0 01-2.672.346l-47.958-2.946a6.95 6.95 0 01-4.753-2.278 6.75 6.75 0 01-1.73-4.921l7.01-110.504a6.717 6.717 0 011.905-4.265A6.905 6.905 0 0117.375.032a5.584 5.584 0 011.196 0l8.372.519a1.949 1.949 0 011.332.642 1.892 1.892 0 01.474 1.384c-.033.51.14 1.01.48 1.394.34.384.822.62 1.338.657l23.405 1.39a1.976 1.976 0 001.41-.487 1.923 1.923 0 00.647-1.328c.037-.504.273-.974.657-1.309a1.98 1.98 0 011.4-.482l8.372.519c.91.048 1.8.273 2.62.66.822.39 1.557.934 2.163 1.603a6.79 6.79 0 011.374 2.296c.3.848.426 1.745.373 2.64z" fill="#B4D1FA"/><g filter="url(#filter0_d)"><path d="M5.656 13.394L3.539 42.17a2.324 2.324 0 00.558 1.755 2.396 2.396 0 001.667.826l50.23 3.334a2.425 2.425 0 001.738-.58 2.332 2.332 0 00.81-1.623l1.853-29.411a2.334 2.334 0 00-.572-1.697c-.41-.47-.99-.762-1.616-.813L8.179 11.214a2.414 2.414 0 00-1.714.581 2.344 2.344 0 00-.809 1.6z" fill="#8FB1DB"/></g><g filter="url(#filter1_d)"><path d="M2.703 50.383l-.275 2.356a1.162 1.162 0 00.267.885 1.192 1.192 0 00.833.423l52.455 3.535c.308.02.611-.078.848-.273.236-.196.386-.473.42-.776l.167-2.356a1.161 1.161 0 00-.29-.858 1.193 1.193 0 00-.822-.403L3.97 49.38c-.3-.021-.598.07-.833.256s-.39.452-.434.745z" fill="#8FB1DB"/></g><g filter="url(#filter2_d)"><path d="M2.283 57.581l-.275 2.357a1.161 1.161 0 00.267.885 1.192 1.192 0 00.833.423l52.455 3.535c.315.02.626-.085.863-.29.238-.206.383-.495.405-.806l.167-2.356a1.162 1.162 0 00-.29-.858 1.194 1.194 0 00-.822-.403L3.55 56.533a1.207 1.207 0 00-.847.273 1.173 1.173 0 00-.42.776z" fill="#8FB1DB"/></g><defs><filter id="filter0_d" x="1.528" y="9.211" width="64.873" height="44.879" filterUnits="userSpaceOnUse" color-interpolation-filters="sRGB"><feFlood flood-opacity="0" result="BackgroundImageFix"/><feColorMatrix in="SourceAlpha" values="0 0 0 0 0 0 0 0 0 0 0 0 0 0 0 0 0 0 127 0"/><feOffset dx="2" dy="2"/><feGaussianBlur stdDeviation="2"/><feColorMatrix values="0 0 0 0 0.555729 0 0 0 0 0.660379 0 0 0 0 0.808333 0 0 0 0.2 0"/><feBlend in2="BackgroundImageFix" result="effect1_dropShadow"/><feBlend in="SourceGraphic" in2="effect1_dropShadow" result="shape"/></filter><filter id="filter1_d" x=".42" y="47.378" width="63.001" height="16.207" filterUnits="userSpaceOnUse" color-interpolation-filters="sRGB"><feFlood flood-opacity="0" result="BackgroundImageFix"/><feColorMatrix in="SourceAlpha" values="0 0 0 0 0 0 0 0 0 0 0 0 0 0 0 0 0 0 127 0"/><feOffset dx="2" dy="2"/><feGaussianBlur stdDeviation="2"/><feColorMatrix values="0 0 0 0 0.555729 0 0 0 0 0.660379 0 0 0 0 0.808333 0 0 0 0.2 0"/><feBlend in2="BackgroundImageFix" result="effect1_dropShadow"/><feBlend in="SourceGraphic" in2="effect1_dropShadow" result="shape"/></filter><filter id="filter2_d" x="0" y="54.53" width="63.001" height="16.253" filterUnits="userSpaceOnUse" color-interpolation-filters="sRGB"><feFlood flood-opacity="0" result="BackgroundImageFix"/><feColorMatrix in="SourceAlpha" values="0 0 0 0 0 0 0 0 0 0 0 0 0 0 0 0 0 0 127 0"/><feOffset dx="2" dy="2"/><feGaussianBlur stdDeviation="2"/><feColorMatrix values="0 0 0 0 0.555729 0 0 0 0 0.660379 0 0 0 0 0.808333 0 0 0 0.2 0"/><feBlend in2="BackgroundImageFix" result="effect1_dropShadow"/><feBlend in="SourceGraphic" in2="effect1_dropShadow" result="shape"/></filter></defs></svg>
